src/img/icons/rato_pata_branco_hover.svg

<svg width="32" height="28" viewBox="0 0 32 28" fill="none" xmlns="http://www.w3.org/2000/svg">
<g clip-path="url(#clip0_465_3283)" opacity="0.65">
<mask id="mask0_465_3283" style="mask-type:luminance" maskUnits="userSpaceOnUse" x="0" y="0" width="32" height="28">
<path d="M0 0H32V28H0V0Z" fill="white"/>
</mask>
<g mask="url(#mask0_465_3283)">
<path fill-rule="evenodd" clip-rule="evenodd" d="M10.322 21.865C10.75 23.73 10.169 25.363 7.92502 25.859C5.89402 26.307 4.04302 24.871 3.54502 21.91C2.50502 15.713 6.92802 10.92 13.058 9.57799C20.294 7.99499 27.395 11.662 28.473 16.916C28.958 19.312 27.98 22.683 26.298 24.456C24.471 26.383 21.101 27.799 18.005 27.99C16.782 28.065 14.354 27.405 13.933 24.9C13.574 22.764 15.484 20.921 18.019 21.046C20.69 21.176 23.625 20.254 22.603 17.577C21.4 14.427 15.816 14.132 12.456 15.835C9.06402 17.555 9.98102 20.382 10.322 21.865ZM14.04 5.94999C12.7 6.29799 11.537 5.32299 11.085 3.89199C10.617 2.41199 11.57 0.909994 12.657 0.509994C14.628 -0.214006 17.214 -0.128006 18.977 0.511994C20.271 0.981994 20.947 2.24899 20.663 3.74599C20.379 5.24299 19.325 6.07399 17.984 5.78199C16.048 5.36199 14.04 5.94999 14.04 5.94999ZM6.24202 8.79999C4.14202 9.92899 2.15202 12.376 0.842017 11.37C-0.467983 10.364 -0.696983 5.67899 3.49202 3.75699C4.99402 3.06899 6.98302 3.61699 7.76402 5.07399C8.54502 6.53099 7.69602 8.01799 6.24202 8.79999ZM25.656 7.94699C24.252 7.07699 23.568 5.56999 24.436 4.16399C25.304 2.75799 27.392 2.27199 28.847 3.05199C32.912 5.22499 32.333 9.94699 30.965 10.872C29.596 11.796 27.683 9.20199 25.656 7.94699Z" fill="#FEFEFF"/>
</g>
</g>
<defs>
<clipPath id="clip0_465_3283">
<rect width="32" height="28" fill="white"/>
</clipPath>
</defs>
</svg>

<svg xmlns="http://www.w3.org/2000/svg" width="32" height="28" fill="none" viewBox="0 0 32 28"><g clip-path="url(#clip0_465_3283)" opacity=".65"><mask id="mask0_465_3283" width="32" height="28" x="0" y="0" maskUnits="userSpaceOnUse" style="mask-type:luminance"><path fill="#fff" d="M0 0h32v28H0z"/></mask><g mask="url(#mask0_465_3283)"><path fill="#fefeff" fill-rule="evenodd" d="M10.322 21.865c.428 1.865-.153 3.498-2.397 3.994-2.031.448-3.882-.988-4.38-3.949-1.04-6.197 3.383-10.99 9.513-12.332 7.236-1.583 14.337 2.084 15.415 7.338.485 2.396-.493 5.767-2.175 7.54-1.827 1.927-5.197 3.343-8.293 3.534-1.223.075-3.651-.585-4.072-3.09-.359-2.136 1.551-3.979 4.086-3.854 2.671.13 5.606-.792 4.584-3.469-1.203-3.15-6.787-3.445-10.147-1.742-3.392 1.72-2.475 4.547-2.134 6.03M14.04 5.95c-1.34.348-2.503-.627-2.955-2.058-.468-1.48.485-2.982 1.572-3.382 1.971-.724 4.557-.638 6.32.002 1.294.47 1.97 1.737 1.686 3.234s-1.338 2.328-2.679 2.036c-1.936-.42-3.944.168-3.944.168M6.242 8.8c-2.1 1.129-4.09 3.576-5.4 2.57s-1.539-5.691 2.65-7.613c1.502-.688 3.491-.14 4.272 1.317S7.696 8.018 6.242 8.8m19.414-.853c-1.404-.87-2.088-2.377-1.22-3.783s2.956-1.892 4.411-1.112c4.065 2.173 3.486 6.895 2.118 7.82-1.369.924-3.282-1.67-5.309-2.925" clip-rule="evenodd"/></g></g><defs><clipPath id="clip0_465_3283"><path fill="#fff" d="M0 0h32v28H0z"/></clipPath></defs></svg>
